!!!OTL: Die wiedergefundene Schwester (Suedeli - Ballade) Ohne Text
!!!ARE: Europa, Mitteleuropa, Deutschland (), Lausitz, Wenden
!!!YOR: 4, S. 32
!!    1881 gedruckt
!!!SCT: Q2072K
!!!YEM: Copyright 1995, estate of Helmut Schaffrath.
**kern
*ICvox
*Ivox
*M3/4
*k[f#]
*G:
=1
{4g
4dd
4dd
=2
2dd
4gg
=3
4dd
4cc
8dd
8cc
=4
2b}
{4dd
=5
4b
4a
4g
=6
4b
4a
4a
=7
4f#
4d
4a
=8
2g}
{4g
=9
4b
4a
4g
=10
4b
4a
4a
=11
4f#
4d
4a
=12
2g
4r}
==
!!!AGN: Ballade, Entfuehrung, Adelige als Dienstmagd, Rueckkehr
!! Wendische Fassung der Ballade.
!!!ONB: ESAC (Essen Associative Code) Database: BALLADE
!!!AMT: simple triple
!!!AIN: vox
!!!EED: Helmut Schaffrath
!!!EEV: 1.0
*-
